X:1
T:Je ne mange point de porc
T:Je ne mange point de porc
T:Claudin de Sermisy
C:Claudin de Sermisy
%%score [ 1 2 3 4 ]
L:1/8
Q:1/4=200
M:3/2
K:F
V:1 treble nm="S."
V:2 treble-8 nm="A."
V:3 treble-8 nm="T."
V:4 bass nm="B."
V:1
 G8 ^F4 | G4 A4 B4 | A4 G4 F4 | G4 _E8 |[M:2/2] D4 ^F3 F | G2 A2 B2 BB | A2 FB A2 G2 | ^F2 G2 z4 | %8
w: Ly- no-|te Bi- go-|te Mar- mo-|te Qui|couldz, Ta no-|te Tant so- te Grin-|go- te Grin- go- te|De nous.|
 F3 D E2 F2 | F4 E2 z G | G2 A2 B3 A | G2 F2 B2 AA | G2 A2 B2 G2 | ^F4 z2 A2 | B2 BB ABcA | %15
w: Les Poulz, Les Loupz,|Les Clouz Te|puis- sent ron- ger|soubz la Co- te Tres-|tous Tes Trouz Or-|douz, Les|Cuis- ses, le Ventre, * * *|
 B2 AG A2 G2- | G2 ^F2 G4 |] %17
w: * * * et la|* Mot- te.|
V:2
 d8 d4 | d4 f4 f4 | f4 _e4 d4 | d4 c8 |[M:2/2] A4 d3 d | d2 f2 f2 gg | e2 df f2 d2 | d2 =B2 z4 | %8
w: Ly- no-|te Bi- go-|te Mar- mo-|te Qui|couldz, Ta no-|te Tant so- te Grin-|go- te Grin- go- te|De nous.|
 d3 A c2 d2 | c4 c2 z d | d2 f2 f3 f | d2 d2 f2 ff | d2 f2 d2 _e2 | d4 z2 f2 | g2 f2 f2 ef | %15
w: Les Poulz, Les Loupz,|Les Clouz Te|puis- sent ron- ger|soubz la Co- te Tres-|tous Tes Trouz Or-|douz, Les|Cuis- ses, le * *|
 g2 f2 f_edc | d4 d4 |] %17
w: Ventre, et la * * *|Mot- te.|
V:3
 B8 A4 | B4 c4 d4 | c4 c4 A4 | B4 G8 |[M:2/2] ^F4 A3 A | B2 c2 d2 dd | c2 Ad c2 B2 | A2 G2 z4 | %8
w: Ly- no-|te Bi- go-|te Mar- mo-|te Qui|couldz, Ta no-|te Tant so- te Grin-|go- te Grin- go- te|De nous.|
 A3 F G2 B2 | A4 G2 z B | B2 c2 d3 c | B2 A2 d2 dd | e2 d2 B2 c2 | A4 z2 d2 | d4 c2 c2 | %15
w: Les Poulz, Les Loupz,|Les Clouz Te|puis- sent ron- ger|soubz la Co- te Tres-|tous Tes Trouz Or-|douz, Les|Cuis- ses, le|
 d3 d c2 B2 | A4 G4 |] %17
w: Ventre, et la *|Mot- te.|
V:4
 G,8 D,4 | G,4 F,4 B,,4 | F,4 C,4 D,4 | G,4 C,8 |[M:2/2] D,4 D,3 D, | G,2 F,2 B,2 G,G, | %6
w: Ly- no-|te Bi- go-|te Mar- mo-|te Qui|couldz, Ta no-|te Tant so- te Grin-|
 A,2 D,B,, F,2 G,2 | D,2 G,,2 z4 | D,3 D, C,2 B,,2 | F,4 C,2 z G, | G,2 F,2 B,3 F, | %11
w: go- te Grin- go- te|De nous.|Les Poulz, Les Loupz,|Les Clouz Te|puis- sent ron- ger|
 G,2 D,2 B,,2 F,F, | G,2 F,2 G,2 C,2 | D,4 z2 D,2 | G,2 B,2 F,G, A,2 | G,2 D,E, F,2 G,2 | %16
w: soubz la Co- te Tres-|tous Tes Trouz Or-|douz, Les|Cuis- ses, le * *|Ventre, et * * la|
 D,4 G,,4 |] %17
w: Mot- te.|

